assets/ai/ai-osf-square.svg

<svg xmlns="http://www.w3.org/2000/svg" width="100%" height="100%" viewBox="-75.52 -43.52 599.04 599.04"><path d="M 48 32 C 21.5 32 0 53.5 0 80 L 0 432 C 0 458.5 21.5 480 48 480 L 400 480 C 426.5 480 448 458.5 448 432 L 448 80 C 448 53.5 426.5 32 400 32 L 48 32 z M 224 96 C 246.16777 96 264.1366 113.97053 264.13867 136.13867 C 264.13867 149.2385 257.76918 160.75929 248.0625 168.08594 C 247.9411 154.88729 237.22635 144.21875 224 144.21875 C 210.77364 144.21875 200.0589 154.88729 199.9375 168.08594 C 190.22973 160.75929 183.86133 149.23742 183.86133 136.13867 C 183.86133 113.97053 201.83186 96 224 96 z M 139.24414 131.10742 C 149.51633 131.10742 159.78895 135.02601 167.62695 142.86328 C 176.88846 152.12734 180.53216 164.77629 178.84961 176.82031 C 178.90283 176.87228 178.96633 176.90588 179.01953 176.95898 C 188.42469 186.36414 188.42469 201.61436 179.01953 211.01953 C 169.61437 220.42469 154.36219 220.42469 144.95703 211.01953 C 144.90528 210.96638 144.87046 210.90271 144.81836 210.84961 C 132.77435 212.53325 120.1259 208.89152 110.86328 199.62891 C 95.187293 183.95292 95.187293 158.53927 110.86328 142.86328 C 118.70074 135.02601 128.97195 131.10742 139.24414 131.10742 z M 308.75586 131.10742 C 319.02823 131.10742 329.29945 135.02601 337.13672 142.86328 C 352.81114 158.53934 352.81177 183.95131 337.13867 199.62695 C 327.87605 208.88848 315.22564 212.53216 303.18164 210.84961 C 303.12826 210.90276 303.09607 210.96643 303.04297 211.01953 C 293.63779 220.42468 278.38562 220.42468 268.98047 211.01953 C 259.5753 201.61437 259.5753 186.36414 268.98047 176.95898 C 269.03362 176.90702 269.09924 176.87251 269.15234 176.82031 C 267.46868 164.77485 271.11044 152.1259 280.37305 142.86328 C 288.2105 135.02601 298.48349 131.10742 308.75586 131.10742 z M 104.13867 215.86133 C 117.23741 215.86133 128.75927 222.2294 136.08594 231.9375 C 122.88728 232.05745 112.21875 242.77329 112.21875 256 C 112.21875 269.22638 122.88728 279.94108 136.08594 280.0625 C 128.75927 289.77027 117.23741 296.13867 104.13867 296.13867 C 81.970533 296.13867 64 278.16813 64 256 C 64 233.83186 81.970533 215.86133 104.13867 215.86133 z M 343.86133 215.86133 C 366.02947 215.86133 384 233.83225 384 256 C 384 278.16779 366.02995 296.13667 343.86328 296.13867 C 330.76342 296.13867 319.24269 289.77111 311.91602 280.06445 C 325.11322 279.94303 335.78125 269.22636 335.78125 256 C 335.78125 242.77365 325.1127 232.05891 311.91406 231.9375 C 319.23926 222.22975 330.76258 215.86133 343.86133 215.86133 z M 161.98828 293.92578 C 168.15229 293.92574 174.31695 296.27771 179.01953 300.98047 C 188.42469 310.386 188.42469 325.63389 179.01953 335.03906 C 178.96593 335.09242 178.90236 335.12693 178.84766 335.17773 C 180.5313 347.22321 176.88956 359.87215 167.62695 369.13477 C 151.95205 384.8093 126.53782 384.8093 110.86328 369.13477 C 95.187291 353.45987 95.187291 328.04562 110.86328 312.37109 C 120.12589 303.10701 132.77484 299.46588 144.82031 301.14844 C 144.87206 301.0967 144.90568 301.03357 144.95898 300.98047 C 149.66156 296.27789 155.82427 293.92583 161.98828 293.92578 z M 286.01172 293.92578 C 292.17574 293.92578 298.33843 296.27789 303.04102 300.98047 C 303.09438 301.03221 303.12749 301.09534 303.17969 301.14844 C 315.22518 299.46588 327.87413 303.10849 337.13672 312.37109 L 337.13867 312.37109 C 352.81266 328.046 352.81271 353.46219 337.13672 369.13672 C 321.46182 384.81126 296.0476 384.81126 280.37305 369.13672 C 271.11154 359.87412 267.46783 347.22518 269.15039 335.17969 C 269.09724 335.12774 269.03387 335.09442 268.98047 335.04102 C 259.57532 325.6355 259.57532 310.38562 268.98047 300.98047 C 273.68305 296.27789 279.8477 293.92578 286.01172 293.92578 z M 199.9375 343.91406 C 200.05855 357.11271 210.77364 367.78125 224 367.78125 C 237.22636 367.78125 247.94111 357.11415 248.0625 343.91406 C 257.77026 351.24071 264.13867 362.76258 264.13867 375.86133 C 264.13867 398.02946 246.16814 416 224 416 C 201.83187 416 183.86133 398.02946 183.86133 375.86133 C 183.86133 362.76147 190.22937 351.24071 199.9375 343.91406 z"/></svg>

<svg xmlns="http://www.w3.org/2000/svg" width="100%" height="100%" viewBox="-75.52 -43.52 599.04 599.04"><path d="M48 32C21.5 32 0 53.5 0 80v352c0 26.5 21.5 48 48 48h352c26.5 0 48-21.5 48-48V80c0-26.5-21.5-48-48-48H48zm176 64c22.168 0 40.137 17.97 40.139 40.139 0 13.1-6.37 24.62-16.077 31.947-.12-13.199-10.836-23.867-24.062-23.867s-23.941 10.668-24.063 23.867c-9.707-7.327-16.076-18.849-16.076-31.947C183.861 113.97 201.831 96 224 96zm-84.756 35.107c10.272 0 20.545 3.919 28.383 11.756 9.261 9.264 12.905 21.913 11.223 33.957.053.052.116.086.17.139 9.405 9.405 9.405 24.655 0 34.06-9.406 9.406-24.658 9.406-34.063 0-.052-.053-.087-.116-.139-.17-12.044 1.684-24.692-1.957-33.955-11.22-15.676-15.676-15.676-41.09 0-56.766 7.838-7.837 18.109-11.756 28.381-11.756zm169.512 0c10.272 0 20.543 3.919 28.38 11.756 15.675 15.676 15.676 41.088.003 56.764-9.263 9.261-21.913 12.905-33.957 11.223-.054.053-.086.116-.139.17-9.405 9.405-24.657 9.405-34.063 0-9.405-9.406-9.405-24.656 0-34.061.054-.052.12-.086.172-.139-1.683-12.045 1.958-24.694 11.221-33.957 7.838-7.837 18.11-11.756 28.383-11.756zm-204.617 84.754c13.098 0 24.62 6.368 31.947 16.077-13.199.12-23.867 10.835-23.867 24.062 0 13.226 10.668 23.941 23.867 24.063-7.327 9.707-18.849 16.076-31.947 16.076C81.97 296.139 64 278.169 64 256c0-22.168 17.97-40.139 40.139-40.139zm239.722 0C366.03 215.861 384 233.832 384 256c0 22.168-17.97 40.137-40.137 40.139-13.1 0-24.62-6.368-31.947-16.075 13.197-.121 23.865-10.838 23.865-24.064s-10.668-23.941-23.867-24.063c7.325-9.707 18.849-16.076 31.947-16.076zm-181.873 78.065a24.011 24.011 0 0117.032 7.054c9.405 9.406 9.405 24.654 0 34.06-.054.052-.118.087-.172.138 1.683 12.045-1.958 24.694-11.221 33.957-15.675 15.674-41.09 15.674-56.764 0-15.676-15.675-15.676-41.09 0-56.764 9.263-9.264 21.912-12.905 33.957-11.223.052-.051.086-.114.139-.168a24.008 24.008 0 0117.03-7.054zm124.024 0a24.007 24.007 0 0117.029 7.054c.053.052.086.115.139.168 12.045-1.682 24.694 1.96 33.957 11.223h.002c15.674 15.675 15.674 41.091-.002 56.766-15.675 15.674-41.09 15.674-56.764 0-9.261-9.263-12.905-21.912-11.223-33.957-.053-.052-.116-.086-.17-.139-9.405-9.406-9.405-24.655 0-34.06a24.012 24.012 0 0117.032-7.055zm-86.075 49.988c.122 13.199 10.837 23.867 24.063 23.867 13.226 0 23.941-10.667 24.063-23.867 9.707 7.327 16.076 18.849 16.076 31.947C264.139 398.03 246.169 416 224 416c-22.168 0-40.139-17.97-40.139-40.139 0-13.1 6.368-24.62 16.077-31.947z"/></svg>
